transport/svg/car_driver2.svg

<?xml version="1.0" encoding="UTF-8" standalone="no"?>
<svg
   xmlns:dc="http://purl.org/dc/elements/1.1/"
   xmlns:cc="http://creativecommons.org/ns#"
   xmlns:rdf="http://www.w3.org/1999/02/22-rdf-syntax-ns#"
   xmlns:svg="http://www.w3.org/2000/svg"
   xmlns="http://www.w3.org/2000/svg"
   version="1.1"
   x="0px"
   y="0px"
   viewBox="0 0 99.681999 42.256001"
   enable-background="new 0 0 100 100"
   xml:space="preserve"
   id="svg8"
   width="99.681999"
   height="42.256001"><metadata
     id="metadata14"><rdf:RDF><cc:Work
         rdf:about=""><dc:format>image/svg+xml</dc:format><dc:type
           rdf:resource="http://purl.org/dc/dcmitype/StillImage" /><dc:title></dc:title></cc:Work></rdf:RDF></metadata><defs
     id="defs12" /><path
     id="path2"
     d="M 66.525391 0 L 33.658203 0.03125 C 31.611203 0.03125 30.329141 0.72685938 28.994141 2.5058594 L 21.417969 13.175781 L 7.8925781 13.175781 C 5.7095781 13.175781 3.9355469 14.947766 3.9355469 17.134766 L 3.9355469 24.796875 L 1.484375 24.796875 C 0.663375 24.796875 0 25.461297 0 26.279297 L 0 30.193359 C 0 31.012359 0.663375 31.679687 1.484375 31.679688 L 19.390625 31.679688 C 20.314625 26.182688 25.087891 21.992187 30.837891 21.992188 C 36.586891 21.992188 41.359203 26.174688 42.283203 31.679688 L 71.050781 31.679688 C 71.979781 26.203688 76.749188 22.025391 82.492188 22.025391 C 88.233187 22.025391 92.994453 26.202687 93.939453 31.679688 L 98.195312 31.679688 C 99.022312 31.679688 99.681641 31.014312 99.681641 30.195312 L 99.681641 26.28125 C 99.681641 25.46325 99.021312 24.808594 98.195312 24.808594 L 95.582031 24.789062 L 95.582031 17.134766 C 95.582031 14.947766 93.804094 13.175781 91.621094 13.175781 L 78.787109 13.175781 L 71.191406 2.4746094 C 69.855406 0.69560937 68.571391 0 66.525391 0 z M 36.769531 3.4609375 L 49.986328 3.4921875 C 50.809328 3.4921875 51.46875 4.1575625 51.46875 4.9765625 L 51.46875 11.71875 C 51.47075 12.53975 50.806328 13.203125 49.986328 13.203125 L 30.236328 13.173828 C 29.415328 13.173828 29.219734 12.5085 29.802734 11.6875 L 34.892578 4.5273438 C 35.642578 3.5353438 35.943531 3.4609375 36.769531 3.4609375 z M 56.34375 3.4628906 L 66.183594 3.4628906 C 67.007594 3.4618906 67.311547 3.5353437 68.060547 4.5273438 L 73.150391 11.689453 C 73.732391 12.508453 73.538797 13.173828 72.716797 13.173828 L 56.34375 13.173828 C 55.52075 13.173828 54.859375 12.509453 54.859375 11.689453 L 54.859375 4.9472656 C 54.859375 4.1272656 55.52075 3.4628906 56.34375 3.4628906 z M 30.839844 24.96875 C 26.061844 24.96875 22.195312 28.837375 22.195312 33.609375 C 22.195312 38.384375 26.068844 42.255859 30.839844 42.255859 C 35.612844 42.255859 39.480469 38.385375 39.480469 33.609375 C 39.480469 28.834375 35.608844 24.96875 30.839844 24.96875 z M 82.388672 24.96875 C 77.607672 24.96875 73.748047 28.837375 73.748047 33.609375 C 73.748047 38.384375 77.617672 42.255859 82.388672 42.255859 C 87.159672 42.255859 91.03125 38.385375 91.03125 33.609375 C 91.03125 28.834375 87.157672 24.96875 82.388672 24.96875 z M 30.835938 29.382812 C 33.168937 29.383813 35.0625 31.274375 35.0625 33.609375 C 35.0625 35.945375 33.167937 37.839844 30.835938 37.839844 C 28.498938 37.839844 26.605469 35.945375 26.605469 33.609375 C 26.605469 31.274375 28.499938 29.382813 30.835938 29.382812 z M 82.488281 29.414062 C 84.821281 29.414062 86.716797 31.305625 86.716797 33.640625 C 86.716797 35.975625 84.821281 37.871094 82.488281 37.871094 C 80.153281 37.871094 78.261719 35.975625 78.261719 33.640625 C 78.261719 31.305625 80.153281 29.414063 82.488281 29.414062 z "
     style="fill:#000000" /><text
     x="-0.057"
     y="88.834999"
     font-size="5px"
     font-weight="bold"
     id="text4"
     style="font-weight:bold;font-size:5px;font-family:'Helvetica Neue', Helvetica, Arial-Unicode, Arial, Sans-serif;fill:#000000">Created by Simon Child</text>
<text
     x="-0.057"
     y="93.834999"
     font-size="5px"
     font-weight="bold"
     id="text6"
     style="font-weight:bold;font-size:5px;font-family:'Helvetica Neue', Helvetica, Arial-Unicode, Arial, Sans-serif;fill:#000000">from the Noun Project</text>
<path
     style="fill:#000000;fill-opacity:1;stroke:none;stroke-width:1;stroke-miterlimit:4;stroke-dasharray:none;stroke-opacity:1"
     d="M 67.399364,9.4832249 A 4.8331566,4.8331566 0 0 1 62.566208,14.316381 4.8331566,4.8331566 0 0 1 57.733051,9.4832249 4.8331566,4.8331566 0 0 1 62.566208,4.6500683 4.8331566,4.8331566 0 0 1 67.399364,9.4832249 Z"
     id="path4491" /></svg>

<?xml version="1.0" encoding="UTF-8" standalone="no"?>
<svg
   xmlns:dc="http://purl.org/dc/elements/1.1/"
   xmlns:cc="http://creativecommons.org/ns#"
   xmlns:rdf="http://www.w3.org/1999/02/22-rdf-syntax-ns#"
   xmlns:svg="http://www.w3.org/2000/svg"
   xmlns="http://www.w3.org/2000/svg"
   height="42.256001"
   width="99.681999"
   id="svg8"
   xml:space="preserve"
   enable-background="new 0 0 100 100"
   viewBox="0 0 99.681999 42.256001"
   y="0px"
   x="0px"
   version="1.1"><metadata
     id="metadata14"><rdf:RDF><cc:Work
         rdf:about=""><dc:format>image/svg+xml</dc:format><dc:type
           rdf:resource="http://purl.org/dc/dcmitype/StillImage" /><dc:title></dc:title></cc:Work></rdf:RDF></metadata><defs
     id="defs12" /><path
     style="fill:#000000"
     id="path2"
     d="m 98.195,31.68 c 0.827,0 1.487,-0.666 1.487,-1.485 v -3.914 c 0,-0.818 -0.661,-1.473 -1.487,-1.473 L 95.582,24.79 v -7.656 c 0,-2.187 -1.777,-3.958 -3.96,-3.958 H 78.788 L 71.192,2.474 C 69.856,0.695 68.571,0 66.525,0 L 33.658,0.032 c -2.047,0 -3.329,0.694 -4.664,2.473 L 21.417,13.176 H 7.893 c -2.183,0 -3.957,1.771 -3.957,3.958 v 7.662 H 1.484 C 0.663,24.796 0,25.462 0,26.28 v 3.914 c 0,0.819 0.663,1.485 1.484,1.485 H 19.39 c 0.924,-5.497 5.697,-9.686 11.447,-9.686 5.749,0 10.522,4.181 11.446,9.686 h 28.768 c 0.929,-5.476 5.698,-9.654 11.441,-9.654 5.741,0 10.503,4.177 11.448,9.654 h 4.255 z M 49.987,13.204 30.236,13.174 c -0.821,0 -1.017,-0.665 -0.434,-1.486 l 5.091,-7.161 c 0.75,-0.992 1.05,-1.066 1.876,-1.066 l 13.218,0.032 c 0.823,0 1.482,0.664 1.482,1.483 v 6.743 c 0.002,0.821 -0.662,1.485 -1.482,1.485 z m -17.693,2.704 h 3.57 c 1.318,0 1.318,1.979 0,1.979 h -3.577 c -0.245,0.294 -0.625,0.494 -1.14,0.494 -1.979,0 -1.979,-2.969 0.014,-2.969 0.507,10e-4 0.886,0.2 1.133,0.496 z m 25.923,0 h 3.569 c 1.321,0 1.321,1.979 0,1.979 h -3.569 c -0.254,0.294 -0.626,0.494 -1.143,0.494 -1.98,0 -1.98,-2.969 0.008,-2.969 0.509,10e-4 0.889,0.2 1.135,0.496 z m 9.843,-11.38 5.09,7.161 c 0.582,0.819 0.389,1.485 -0.433,1.485 H 56.343 c -0.823,0 -1.484,-0.665 -1.484,-1.485 V 4.947 c 0,-0.82 0.661,-1.484 1.484,-1.484 l 9.841,-10e-4 c 0.824,-0.001 1.127,0.074 1.876,1.066 z M 35.063,33.61 c 0,2.336 -1.895,4.229 -4.227,4.229 -2.337,0 -4.231,-1.893 -4.231,-4.229 0,-2.335 1.895,-4.228 4.231,-4.228 2.333,10e-4 4.227,1.893 4.227,4.228 z m 4.418,0 c 0,-4.775 -3.873,-8.641 -8.642,-8.641 -4.778,0 -8.643,3.869 -8.643,8.641 0,4.775 3.872,8.646 8.643,8.646 4.773,0 8.642,-3.87 8.642,-8.646 z m 47.236,0.031 c 0,2.335 -1.895,4.231 -4.228,4.231 -2.335,0 -4.227,-1.896 -4.227,-4.231 0,-2.335 1.892,-4.227 4.227,-4.227 2.333,0 4.228,1.892 4.228,4.227 z m 4.314,-0.031 c 0,-4.775 -3.873,-8.641 -8.642,-8.641 -4.781,0 -8.641,3.869 -8.641,8.641 0,4.775 3.87,8.646 8.641,8.646 4.771,0 8.642,-3.87 8.642,-8.646 z" /><text
     style="font-weight:bold;font-size:5px;font-family:'Helvetica Neue', Helvetica, Arial-Unicode, Arial, Sans-serif;fill:#000000"
     id="text4"
     font-weight="bold"
     font-size="5px"
     y="88.834999"
     x="-0.057">Created by Simon Child</text>
<text
     style="font-weight:bold;font-size:5px;font-family:'Helvetica Neue', Helvetica, Arial-Unicode, Arial, Sans-serif;fill:#000000"
     id="text6"
     font-weight="bold"
     font-size="5px"
     y="93.834999"
     x="-0.057">from the Noun Project</text>
<path
     id="path4491"
     d="M 67.399364,9.4832249 A 4.8331566,4.8331566 0 0 1 62.566208,14.316381 4.8331566,4.8331566 0 0 1 57.733051,9.4832249 4.8331566,4.8331566 0 0 1 62.566208,4.6500683 4.8331566,4.8331566 0 0 1 67.399364,9.4832249 Z"
     style="fill:#000000;fill-opacity:1;stroke:none;stroke-width:1;stroke-miterlimit:4;stroke-dasharray:none;stroke-opacity:1" /></svg>
